X:31
T:Marquis of Huntly’s Favourite,The. 2voices. Dix.31
M:C
L:1/8
Q:1/4=120
S:Anon. MS dated 1811, from Dixon collection, Holton le Moor, Lincs.
R:reel
N:Repeat marks added at start
O:England;Lincolnshire;Holton le Moor
Z:vmp.R.Greig 2012 <http://www.village-music-project.org.uk>
K:A
[V:1]|:A,2> C2 E/E/E E>F|A>B {AB}c>B {c}Ac Ac|A,2>C2 E/E/E E>c|”tr”B>c d/B/c/A/ {F}F2 FA|
[V:2]|:A,,2A,,2A,,2A,,2|A,,2A,,2A,,2A,,2|A,,2A,,2A,,2A,,2|B,,2A,,2G,,2E,,2|
[V:1]A,2>C2 E/E/E EF/G/|A>B {AB}c>B {c}B>A Ac|d2> e2 {f}ed/c/ {d}cB/A/|B>c c/B/c/A/ GEE:|
[V:2]A,,2A,,2A,,2A,,2|A,,2A,,2A,,2A,,2|D,2D,2C,2C,2|B,,2A,,2E,,2E,:|
[V:1]|:e|f/e/d/c/ a>c bc a2|f/e/d/c/ a>c “tr”fe”tr”dc|f(bb)f b/a/g/f/b2|fbbf “tr”ag”tr”fe|
[V:2]|:z|A,2A,2A,2A,2|A,2A,2A,2A,2|B,,2B,2B,,2B,2|B,,2B,2B,,2B,2|
[V:1]f/e/d/c/ a>A b>ca2|f/e/d/c/ a>c (“tr”fe)(“tr”dc)|.d/.e/.f/.g/ .a/.g/.f/.e/ .f/.g/.a/.g/ .f/.e/.d/.c/|”tr”B>c d/B/c/A/ {G}F2FA:|
[V:2]A,2A,2A,2A,2|D,2D,2C,2C,2|B,,2A,,2E,,2E,2|B,,2A,,2E,,2E,2:|

